X:1
T:Mining Camp Blues (2)
M:12/8
L:1/8
K:C
 B2 d d2 eB-A G2 z2| B3/2 c3/2 cc-d d- c2 B3| G3- G z2 z2| z4|B-c c c2 cd-c G2 z B-|\
 Bc c c3/2 d3/2 d- c2 B3| G3- G z2 z2 z2 z2| d2 d d2 d ^c2 d- d2 z|\
 B2 c c3|c-d d B3| G3- G2 z z2 z2 z2|
